X: 2173
Q: "Reel."
M: C
L: 1/8
K: D
ug |\
a2fd g2ec | d2(AG) FDDF |\
E2(FG) ABcd |[1 eAfA gf e :|[2 eABc d2 :|\
defg aAfA | gfed ceAe |
defg aAfA | gba^g a2(af) |\
a^gaf =gfed | eAfA GFED |\


